X:914
T:Antrim Rose
R:reel
C:Paddy O'Brien (Offaly)
Z:id:hn-reel-914
M:C|
L:1/8
K:D
fd~d2 edBd | Ad~d2 BdAd | fd~d2 edBA | Bdgf e2de |
fd~d2 edBd | Addc defg | a2ab afeg |1 fedB A2de :|2 fedB A2Bd ||
|: e2ef edBd | e2df efgf | e2ef edBd | Addc dABd |
e2ef edBd | e2df efgf | eaab afeg |1 fedB A2Bd :|2 fedB ABde ||
P:variations
|: fddf edBd | Ad~d2 ABde | fAdf edBd | Bdgf efde |
f2df edBd | AddA defg | faab afeg |1 fedB A2ag :|2 fedB A2gf ||
|: e2ef edBd | e2df efgf | egfd edBd | Adde d2Bd |
e2ef edBd | e2df efgf | eaab afeg |1 fedB A2gf :|2 fedB A2ag ||

